X:1
T:Say It With Music
T:Say It With Music
T:Irving Berlin
C:Irving Berlin
Z:All Rights Reserved
L:1/4
M:2/2
K:Eb
V:1 treble 
%%MIDI program 40
%%MIDI control 7 100
%%MIDI control 10 64
V:1
"Eb" E G B c |"Gbdim" d2 c2 |"Fm7b5" =B c b a |"Bb7" g2 f2 ||"Eb""^Verse" E G B c |"Gbdim" d2 c2 | %6
w: ||||Mu- sic is a|lang- uage|
w: ||||There's a ten- der|mes- sage|
"Fm7b5" =B c A G |"Bb7" F3 z |"Eb" E G B c |"Gbdim" d2 c2 |"Fm7b5" =B c A G |"Bb7" F3 z | %12
w: lov- ers un- der-|stand,|Mel- o- dy and|ro- mance|wan- der hand in|hand;|
w: Deep down in my|heart,|Some- thing you should|know But|how am I to|start:|
"Eb7" E G B _d |"Db/Ab" f2"Ab" e2 |"G+7" e d"G7" G d |"Cm" c3 z |"F7/A" F"Cm/G" G"F7" =A"F9" e | %17
w: Cu- pid nev- er|fails as-|sis- ted by a|band,|So if you have|
w: Sen- ti- men- tal|speech- es|Nev- er could im-|part,|Just ex- act- ly|
"F7" d2 c2 |"Bb" B2"Fm7b5" A2 |"Bb+" _G2"Bb7" F2 ||"Eb""^Chorus" E4 | G2 c2 |"Bb7" B4 | F3 z | %24
w: some- thing|sweet to|tell her;|Say|it with|mu-|sic,|
w: what I|want to|tell you;|||||
"Ab" A4 | c2 f2 |"Eb" e4 | B3 z |"Abm" e4 |"B" _d2 =B2 |"Eb/Bb" B =A B G- |"Cm7" G3 z | %32
w: Beau-|ti- ful|mu-|sic;|Some-|how they'd|rath- er be kissed||
w: ||||||||
"Ab" c2"Eb" B2 |"G7" G2 F2 |"Cm" E D E C- |"Fm7" C2"Bb7" D2 |"Eb" E4 | G2 c2 |"Bb7" B4 | F3 z | %40
w: To the|strains of|Cho- pin or Liszt|* A|mel|o- dy|mel-|low,|
w: ||||||||
"Ab" A4 | c2 f2 |"Eb" e4 |"G7" d3 z |"Bbm" _d4 |"C7" G2 _d2 |"Fm" c =B"C7/G" c F- |"Fm/Ab" F2 z G | %48
w: played|on a|cel-|lo,|Helps|mis- ter|Cu- pid a- long|* So|
w: ||||||||
"Fm7" A G"Fm7b5" A E |"Bb7" B F G E- |"Eb""Abm" E4- |"Eb" E3 z |] %52
w: say it with a|beau- ti- ful song.-|||
w: ||||

